assets/img/logo/logo.svg

<svg width="115" height="12" viewBox="0 0 115 12" version="1.1" xmlns="http://www.w3.org/2000/svg" xmlns:xlink="http://www.w3.org/1999/xlink">
<title></title>
<desc>Created using Figma</desc>
<g id="Canvas" transform="matrix(0.95559 0 0 0.95559 478.383 451.158)">
<g id="logo">
<g id="XMLID_234_">
<g id="XMLID_243_">
<use xlink:href="#path0_fill" transform="translate(-500.615 -471.76)"/>
</g>
<g id="XMLID_242_">
<use xlink:href="#path1_fill" transform="translate(-468.644 -471.76)"/>
</g>
<g id="XMLID_238_">
<use xlink:href="#path2_fill" transform="translate(-484.317 -471.76)"/>
</g>
<g id="XMLID_235_">
<use xlink:href="#path3_fill" transform="translate(-454.125 -471.76)"/>
</g>
</g>
<g id="XMLID_224_">
<g id="XMLID_232_">
<use xlink:href="#path4_fill" transform="translate(-433.356 -471.76)" fill="#57AD56"/>
<use xlink:href="#path5_stroke" transform="translate(-433.356 -471.76)" fill="#57AD56"/>
</g>
<g id="XMLID_229_">
<use xlink:href="#path6_fill" transform="translate(-419.942 -471.76)" fill="#57AD56"/>
<use xlink:href="#path7_stroke" transform="translate(-419.942 -471.76)" fill="#57AD56"/>
</g>
<g id="XMLID_227_">
<use xlink:href="#path8_fill" transform="translate(-404.606 -471.76)" fill="#57AD56"/>
<use xlink:href="#path9_stroke" transform="translate(-404.606 -471.76)" fill="#57AD56"/>
</g>
<g id="XMLID_225_">
<use xlink:href="#path10_fill" transform="translate(-389.942 -472)" fill="#57AD56"/>
<use xlink:href="#path11_stroke" transform="translate(-389.942 -472)" fill="#57AD56"/>
</g>
</g>
</g>
</g>
<defs>
<path id="path0_fill" d="M 9.03846 0.288462L 9.03846 6.92308C 9.03846 9.13462 8.07692 10.0481 5.76923 10.0481C 3.46154 10.0481 2.5 9.13462 2.5 6.92308L 2.5 0L 0.288462 0C 0.144231 0 0 0.144231 0 0.288462L 0 7.01923C 0 10.7212 2.35577 12.0192 5.76923 12.0192C 9.18269 12.0192 11.5385 10.7212 11.5385 7.01923L 11.5385 0L 9.32692 0C 9.18269 0 9.03846 0.0961538 9.03846 0.288462Z"/>
<path id="path1_fill" d="M 9.23077 1.92308C 9.42308 1.92308 9.51923 1.875 9.56731 1.73077L 10.1923 0.144231C 10.2404 0.0480769 10.1923 0 10.0962 0L 1.15385 0C 0.336538 0 0 0.240385 0 0.817308L 0 11.1058C 0 11.5865 0.240385 11.8269 0.865385 11.8269L 9.18269 11.8269C 9.375 11.8269 9.47115 11.7788 9.51923 11.6346L 10.1442 10.0481C 10.1923 9.95192 10.1442 9.90385 10.0481 9.90385L 2.45192 9.90385L 2.45192 7.78846C 2.45192 7.06731 2.83654 6.73077 3.94231 6.73077L 7.25962 6.73077C 7.45192 6.73077 7.54808 6.68269 7.59615 6.53846L 8.22115 5C 8.26923 4.90385 8.22115 4.85577 8.125 4.85577L 2.5 4.85577L 2.5 1.875L 9.23077 1.875L 9.23077 1.92308Z"/>
<path id="path2_fill" fill-rule="evenodd" d="M 9.18268 5.57693C 10.1442 5.04807 10.5288 4.13461 10.5288 2.98077C 10.5288 0.384613 8.41345 0 6.20193 0L 1.15384 0C 0.336548 0 0 0.240387 0 0.817322L 0 11.1058C 0 11.5865 0.240387 11.8269 0.865387 11.8269L 7.06732 11.8269C 9.42307 11.8269 11.0577 10.9135 11.0577 8.55768C 11.1058 7.11539 10.5288 5.91345 9.18268 5.57693ZM 2.5 1.875L 6.39423 1.875C 7.69232 1.875 8.07693 2.35577 8.07693 3.36539C 8.07693 4.375 7.69232 4.85577 6.39423 4.85577L 2.5 4.85577L 2.5 1.875ZM 2.5 9.90384L 6.875 9.90384C 8.26923 9.90384 8.65384 9.42307 8.65384 8.31729C 8.65384 7.21152 8.26923 6.68268 6.875 6.68268L 3.99039 6.68268C 2.88461 6.68268 2.5 7.01923 2.5 7.74036L 2.5 9.90384Z"/>
<path id="path3_fill" fill-rule="evenodd" d="M 8.50961 7.06732L 11.1538 11.6346C 11.2019 11.6827 11.2019 11.8269 11.1058 11.8269L 8.84616 11.8269C 8.65384 11.8269 8.60577 11.7788 8.50961 11.6346L 6.10577 7.30768L 3.94232 7.30768C 2.83655 7.30768 2.45193 7.64423 2.45193 8.36539L 2.45193 11.8269L 0.288452 11.8269C 0.144226 11.8269 0 11.6827 0 11.5385L 0 0.817322C 0 0.240387 0.336548 0 1.15384 0L 6.20193 0C 9.13461 0 10.9135 0.769226 10.9135 3.65384C 10.9135 5.86539 9.80768 6.73077 8.50961 7.06732ZM 2.40384 5.48077L 6.53845 5.48077C 8.0769 5.48077 8.41345 4.90384 8.41345 3.65384C 8.41345 2.45193 8.0769 1.875 6.53845 1.875L 2.40384 1.875L 2.40384 5.48077Z"/>
<path id="path4_fill" d="M 8.79808 10.7692L 8.75 11.8269L 0 11.8269L 0 0L 8.41346 0L 8.46154 1.10577L 1.20192 1.10577L 1.20192 5.19231L 7.45192 5.19231L 7.45192 6.15385L 1.20192 6.15385L 1.20192 10.7692L 8.79808 10.7692Z"/>
<path id="path5_stroke" d="M 8.75 11.8269L 8.75 11.9519L 8.86945 11.9519L 8.87487 11.8326L 8.75 11.8269ZM 0 11.8269L -0.125 11.8269L -0.125 11.9519L 0 11.9519L 0 11.8269ZM 0 0L 0 -0.125L -0.125 -0.125L -0.125 0L 0 0ZM 8.41346 0L 8.53834 -0.00542962L 8.53314 -0.125L 8.41346 -0.125L 8.41346 0ZM 8.46154 1.10577L 8.46154 1.23077L 8.59209 1.23077L 8.58642 1.10034L 8.46154 1.10577ZM 1.20192 1.10577L 1.20192 0.980769L 1.07692 0.980769L 1.07692 1.10577L 1.20192 1.10577ZM 1.20192 5.19231L 1.07692 5.19231L 1.07692 5.31731L 1.20192 5.31731L 1.20192 5.19231ZM 7.45192 5.19231L 7.57692 5.19231L 7.57692 5.06731L 7.45192 5.06731L 7.45192 5.19231ZM 7.45192 6.15385L 7.45192 6.27885L 7.57692 6.27885L 7.57692 6.15385L 7.45192 6.15385ZM 1.20192 6.15385L 1.20192 6.02885L 1.07692 6.02885L 1.07692 6.15385L 1.20192 6.15385ZM 1.20192 10.7692L 1.07692 10.7692L 1.07692 10.8942L 1.20192 10.8942L 1.20192 10.7692ZM 8.67321 10.7636L 8.62513 11.8212L 8.87487 11.8326L 8.92295 10.7749L 8.67321 10.7636ZM 8.75 11.7019L 0 11.7019L 0 11.9519L 8.75 11.9519L 8.75 11.7019ZM 0.125 11.8269L 0.125 0L -0.125 0L -0.125 11.8269L 0.125 11.8269ZM 0 0.125L 8.41346 0.125L 8.41346 -0.125L 0 -0.125L 0 0.125ZM 8.28858 0.00542962L 8.33666 1.1112L 8.58642 1.10034L 8.53834 -0.00542962L 8.28858 0.00542962ZM 8.46154 0.980769L 1.20192 0.980769L 1.20192 1.23077L 8.46154 1.23077L 8.46154 0.980769ZM 1.07692 1.10577L 1.07692 5.19231L 1.32692 5.19231L 1.32692 1.10577L 1.07692 1.10577ZM 1.20192 5.31731L 7.45192 5.31731L 7.45192 5.06731L 1.20192 5.06731L 1.20192 5.31731ZM 7.32692 5.19231L 7.32692 6.15385L 7.57692 6.15385L 7.57692 5.19231L 7.32692 5.19231ZM 7.45192 6.02885L 1.20192 6.02885L 1.20192 6.27885L 7.45192 6.27885L 7.45192 6.02885ZM 1.07692 6.15385L 1.07692 10.7692L 1.32692 10.7692L 1.32692 6.15385L 1.07692 6.15385ZM 1.20192 10.8942L 8.79808 10.8942L 8.79808 10.6442L 1.20192 10.6442L 1.20192 10.8942Z"/>
<path id="path6_fill" fill-rule="evenodd" d="M 2.64423 8.75L 9.61539 8.75L 10.9615 11.8269L 12.3077 11.8269L 6.875 0L 5.48077 0L 0 11.8269L 1.29807 11.8269L 2.64423 8.75ZM 3.07693 7.74039L 5.625 2.01926L 6.10577 0.817322L 6.15387 0.817322L 6.63461 2.01926L 9.13461 7.74039L 3.07693 7.74039Z"/>
<path id="path7_stroke" d="M 9.61539 8.75L 9.72991 8.6999L 9.69714 8.625L 9.61539 8.625L 9.61539 8.75ZM 2.64423 8.75L 2.64423 8.625L 2.56247 8.625L 2.52971 8.6999L 2.64423 8.75ZM 10.9615 11.8269L 10.847 11.877L 10.8798 11.9519L 10.9615 11.9519L 10.9615 11.8269ZM 12.3077 11.8269L 12.3077 11.9519L 12.5027 11.9519L 12.4213 11.7748L 12.3077 11.8269ZM 6.875 0L 6.98859 -0.0521771L 6.95514 -0.125L 6.875 -0.125L 6.875 0ZM 5.48077 0L 5.48077 -0.125L 5.40093 -0.125L 5.36736 -0.0525576L 5.48077 0ZM 0 11.8269L -0.113414 11.7744L -0.195697 11.9519L 0 11.9519L 0 11.8269ZM 1.29807 11.8269L 1.29807 11.9519L 1.37982 11.9519L 1.41258 11.877L 1.29807 11.8269ZM 5.625 2.01926L 5.73927 2.07015L 5.74106 2.06568L 5.625 2.01926ZM 3.07693 7.74039L 2.96275 7.68953L 2.88443 7.86539L 3.07693 7.86539L 3.07693 7.74039ZM 6.10577 0.817322L 6.10577 0.692322L 6.02114 0.692322L 5.98971 0.770898L 6.10577 0.817322ZM 6.15387 0.817322L 6.26993 0.7709L 6.2385 0.692322L 6.15387 0.692322L 6.15387 0.817322ZM 6.63461 2.01926L 6.5185 2.0657L 6.52007 2.06931L 6.63461 2.01926ZM 9.13461 7.74039L 9.13461 7.86539L 9.32565 7.86539L 9.24916 7.69033L 9.13461 7.74039ZM 9.61539 8.625L 2.64423 8.625L 2.64423 8.875L 9.61539 8.875L 9.61539 8.625ZM 11.0761 11.7768L 9.72991 8.6999L 9.50087 8.8001L 10.847 11.877L 11.0761 11.7768ZM 12.3077 11.7019L 10.9615 11.7019L 10.9615 11.9519L 12.3077 11.9519L 12.3077 11.7019ZM 6.76141 0.0521771L 12.1941 11.8791L 12.4213 11.7748L 6.98859 -0.0521771L 6.76141 0.0521771ZM 5.48077 0.125L 6.875 0.125L 6.875 -0.125L 5.48077 -0.125L 5.48077 0.125ZM 0.113414 11.8795L 5.59419 0.0525576L 5.36736 -0.0525576L -0.113414 11.7744L 0.113414 11.8795ZM 1.29807 11.7019L 0 11.7019L 0 11.9519L 1.29807 11.9519L 1.29807 11.7019ZM 2.52971 8.6999L 1.18355 11.7768L 1.41258 11.877L 2.75875 8.8001L 2.52971 8.6999ZM 5.51081 1.9684L 2.96275 7.68953L 3.19112 7.79124L 5.73919 2.07011L 5.51081 1.9684ZM 5.98971 0.770898L 5.50894 1.97283L 5.74106 2.06568L 6.22183 0.863746L 5.98971 0.770898ZM 6.15387 0.692322L 6.10577 0.692322L 6.10577 0.942322L 6.15387 0.942322L 6.15387 0.692322ZM 6.75067 1.97284L 6.26993 0.7709L 6.03781 0.863743L 6.51855 2.06568L 6.75067 1.97284ZM 9.24916 7.69033L 6.74915 1.9692L 6.52007 2.06931L 9.02007 7.79044L 9.24916 7.69033ZM 3.07693 7.86539L 9.13461 7.86539L 9.13461 7.61539L 3.07693 7.61539L 3.07693 7.86539Z"/>
<path id="path8_fill" d="M 5.625 1.10577L 5.625 11.8269L 4.42308 11.8269L 4.42308 1.10577L 0 1.10577L 0.0480769 0L 10.0962 0L 10.0962 1.10577L 5.625 1.10577Z"/>
<path id="path9_stroke" d="M 5.625 11.8269L 5.625 11.9519L 5.75 11.9519L 5.75 11.8269L 5.625 11.8269ZM 4.42308 11.8269L 4.29808 11.8269L 4.29808 11.9519L 4.42308 11.9519L 4.42308 11.8269ZM 4.42308 1.10577L 4.54808 1.10577L 4.54808 0.980769L 4.42308 0.980769L 4.42308 1.10577ZM 0 1.10577L -0.124882 1.10034L -0.130553 1.23077L 0 1.23077L 0 1.10577ZM 0.0480769 0L 0.0480769 -0.125L -0.0716064 -0.125L -0.0768051 -0.00542965L 0.0480769 0ZM 10.0962 0L 10.2212 0L 10.2212 -0.125L 10.0962 -0.125L 10.0962 0ZM 10.0962 1.10577L 10.0962 1.23077L 10.2212 1.23077L 10.2212 1.10577L 10.0962 1.10577ZM 5.5 1.10577L 5.5 11.8269L 5.75 11.8269L 5.75 1.10577L 5.5 1.10577ZM 5.625 11.7019L 4.42308 11.7019L 4.42308 11.9519L 5.625 11.9519L 5.625 11.7019ZM 4.54808 11.8269L 4.54808 1.10577L 4.29808 1.10577L 4.29808 11.8269L 4.54808 11.8269ZM 4.42308 0.980769L 0 0.980769L 0 1.23077L 4.42308 1.23077L 4.42308 0.980769ZM 0.124882 1.1112L 0.172959 0.00542965L -0.0768051 -0.00542965L -0.124882 1.10034L 0.124882 1.1112ZM 0.0480769 0.125L 10.0962 0.125L 10.0962 -0.125L 0.0480769 -0.125L 0.0480769 0.125ZM 9.97115 0L 9.97115 1.10577L 10.2212 1.10577L 10.2212 0L 9.97115 0ZM 10.0962 0.980769L 5.625 0.980769L 5.625 1.23077L 10.0962 1.23077L 10.0962 0.980769Z"/>
<path id="path10_fill" d="M 3.99038 12.3077C 2.35577 12.3077 1.05769 11.9231 0 11.2981L 0.192308 10.2404C 1.29808 10.8654 2.54808 11.25 4.03846 11.25C 6.25 11.25 7.40385 10.2404 7.40385 8.79808C 7.40385 5.67308 0.192308 7.30769 0.192308 3.26923C 0.192308 1.53846 1.49038 0 4.51923 0C 5.91346 0 7.16346 0.240385 8.17308 0.721154L 7.98077 1.73077C 6.875 1.29808 5.81731 1.05769 4.56731 1.05769C 2.21154 1.05769 1.34615 2.11538 1.34615 3.17308C 1.34615 6.15385 8.55769 4.47115 8.55769 8.70192C 8.50962 10.8173 6.97115 12.3077 3.99038 12.3077Z"/>
<path id="path11_stroke" d="M 0 11.2981L -0.122984 11.2757L -0.138561 11.3614L -0.0635912 11.4057L 0 11.2981ZM 0.192308 10.2404L 0.253815 10.1316L 0.100772 10.0451L 0.069324 10.218L 0.192308 10.2404ZM 8.17308 0.721154L 8.29587 0.744543L 8.31392 0.649773L 8.22682 0.608296L 8.17308 0.721154ZM 7.98077 1.73077L 7.93522 1.84717L 8.0754 1.90203L 8.10356 1.75416L 7.98077 1.73077ZM 8.55769 8.70192L 8.68269 8.70476L 8.68269 8.70192L 8.55769 8.70192ZM 3.99038 12.1827C 2.37371 12.184 1.10762 11.8085 0.0635912 11.1905L -0.0635912 11.4057C 1.00777 12.0377 2.33783 12.4314 3.99038 12.4327L 3.99038 12.1827ZM 0.122984 11.3204L 0.315291 10.2627L 0.069324 10.218L -0.122984 11.2757L 0.122984 11.3204ZM 0.130801 10.3492C 1.24866 10.9802 2.52949 11.3736 4.03846 11.375L 4.03846 11.125C 2.56666 11.1264 1.3475 10.7506 0.253815 10.1316L 0.130801 10.3492ZM 4.03846 11.375C 5.16141 11.375 6.03281 11.1189 6.62649 10.6641C 7.22391 10.2065 7.52885 9.55602 7.52885 8.79808L 7.27885 8.79808C 7.27885 9.48244 7.00686 10.0579 6.47447 10.4657C 5.93835 10.8763 5.12705 11.125 4.03846 11.125L 4.03846 11.375ZM 7.52885 8.79808C 7.52885 7.95256 7.03376 7.43401 6.33442 7.07269C 5.64446 6.71725 4.7303 6.49844 3.83066 6.25552C 2.92719 6.01159 2.04588 5.74407 1.38979 5.29429C 0.742793 4.85073 0.317308 4.23201 0.317308 3.26923L 0.0673078 3.26923C 0.0673078 4.32569 0.543265 5.01705 1.24843 5.50048C 1.9445 5.97768 2.86608 6.25404 3.76549 6.49688C 4.66873 6.74074 5.55746 6.95162 6.21967 7.2948C 6.87249 7.63209 7.27885 8.08109 7.27885 8.79808L 7.52885 8.79808ZM 0.317308 3.26923C 0.317308 2.43653 0.628637 1.65541 1.30117 1.0806C 1.97531 0.504412 3.02501 0.125 4.51923 0.125L 4.51923 -0.125C 2.98461 -0.125 1.87085 0.264819 1.13874 0.890555C 0.405017 1.51767 0.0673078 2.37116 0.0673078 3.26923L 0.317308 3.26923ZM 4.51923 0.125C 5.90161 0.124436 7.12447 0.359149 8.11934 0.834011L 8.22682 0.608296C 7.20245 0.121621 5.92532 -0.124436 4.51923 -0.125L 4.51923 0.125ZM 8.05028 0.697765L 7.85798 1.70738L 8.10356 1.75416L 8.29587 0.744543L 8.05028 0.697765ZM 8.02632 1.61436C 6.91173 1.17859 5.83125 0.933472 4.56731 0.932692L 4.56731 1.18269C 5.80337 1.18191 6.83827 1.41756 7.93522 1.84717L 8.02632 1.61436ZM 4.56731 0.932692C 3.37246 0.932692 2.53663 1.20075 1.99666 1.62002C 1.45372 2.04159 1.22115 2.60773 1.22115 3.17308L 1.47115 3.17308C 1.47115 2.68073 1.67128 2.18917 2.14998 1.81748C 2.63164 1.44348 3.40639 1.18269 4.56731 1.18269L 4.56731 0.932692ZM 1.22115 3.17308C 1.22317 3.56803 1.35012 3.90709 1.55826 4.17081C 1.76781 4.43172 2.07187 4.64369 2.41846 4.81201C 3.10789 5.14508 4.02075 5.34978 4.91972 5.58953C 5.82211 5.83017 6.70276 6.10504 7.35815 6.57401C 8.00467 7.03663 8.43269 7.68838 8.43269 8.70192L 8.68269 8.70192C 8.68269 7.60008 8.20928 6.87563 7.50363 6.3707C 6.80686 5.87212 5.88462 5.5881 4.98413 5.34797C 4.08021 5.10695 3.19019 4.90901 2.52745 4.58702C 2.19797 4.42782 1.93862 4.24917 1.75379 4.01504C 1.56755 3.78371 1.46914 3.52332 1.47115 3.17308L 1.22115 3.17308ZM 8.43272 8.69908C 8.4094 9.72533 8.02587 10.591 7.2937 11.2021C 6.55935 11.815 5.46108 12.1827 3.99038 12.1827L 3.99038 12.4327C 5.50046 12.4327 6.6618 12.0552 7.4539 11.394C 8.24817 10.7311 8.65791 9.7939 8.68266 8.70476L 8.43272 8.69908Z"/>
</defs>
</svg>

<svg width="115" height="12" xmlns="http://www.w3.org/2000/svg" xmlns:xlink="http://www.w3.org/1999/xlink"><use xlink:href="#path0_fill" transform="translate(.0003 .3489) scale(.95559)"/><use xlink:href="#path1_fill" transform="translate(30.5515 .3489) scale(.95559)"/><use xlink:href="#path2_fill" transform="translate(15.5745 .3489) scale(.95559)"/><use xlink:href="#path3_fill" transform="translate(44.4257 .3489) scale(.95559)"/><g fill="#57AD56"><g transform="translate(64.2723 .3489) scale(.95559)"><use xlink:href="#path4_fill"/><use xlink:href="#path5_stroke"/></g><g transform="translate(77.0906 .3489) scale(.95559)"><use xlink:href="#path6_fill"/><use xlink:href="#path7_stroke"/></g><g transform="translate(91.7456 .3489) scale(.95559)"><use xlink:href="#path8_fill"/><use xlink:href="#path9_stroke"/></g><g transform="translate(105.7583 .1195) scale(.95559)"><use xlink:href="#path10_fill"/><use xlink:href="#path11_stroke"/></g></g><defs><path id="path0_fill" d="M9.0385.2885V6.923c0 2.2115-.9616 3.125-3.2693 3.125-2.3077 0-3.2692-.9135-3.2692-3.125V0H.2885C.1442 0 0 .1442 0 .2885v6.7307c0 3.702 2.3558 5 5.7692 5 3.4135 0 5.7693-1.298 5.7693-5V0H9.3269c-.1442 0-.2884.0962-.2884.2885z"/><path id="path1_fill" d="M9.2308 1.923c.1923 0 .2884-.048.3365-.1922l.625-1.5866c.0481-.0961 0-.1442-.0961-.1442H1.1539C.3365 0 0 .2404 0 .8173v10.2885c0 .4807.2404.7211.8654.7211h8.3173c.1923 0 .2884-.0481.3365-.1923l.625-1.5865c.0481-.0962 0-.1442-.0961-.1442H2.4519V7.7885c0-.7212.3846-1.0577 1.4904-1.0577h3.3173c.1923 0 .2885-.0481.3365-.1923L8.2211 5c.0481-.0961 0-.1442-.0961-.1442H2.5V1.875h6.7308v.048z"/><path id="path2_fill" fill-rule="evenodd" d="M9.1827 5.577c.9615-.529 1.3461-1.4424 1.3461-2.5962C10.5288.3846 8.4134 0 6.2019 0H1.154C.3364 0 0 .2404 0 .8173v10.2885c0 .4807.2404.7211.8654.7211h6.202c2.3557 0 3.9903-.9134 3.9903-3.2692.0481-1.4423-.5289-2.6443-1.875-2.9808zM2.5 1.875h3.8942c1.2981 0 1.6827.4808 1.6827 1.4904 0 1.0096-.3846 1.4904-1.6827 1.4904H2.5V1.875zm0 8.0288h4.375c1.3942 0 1.7788-.4807 1.7788-1.5865S8.2692 6.6827 6.875 6.6827H3.9904c-1.1058 0-1.4904.3365-1.4904 1.0577v2.1634z"/><path id="path3_fill" fill-rule="evenodd" d="M8.5096 7.0673l2.6442 4.5673c.0481.0481.0481.1923-.048.1923H8.8462c-.1924 0-.2404-.0481-.3366-.1923l-2.4038-4.327H3.9423c-1.1058 0-1.4904.3366-1.4904 1.0578v3.4615H.2885c-.1443 0-.2885-.1442-.2885-.2884V.8173C0 .2403.3365 0 1.1538 0H6.202c2.9327 0 4.7116.7692 4.7116 3.6538 0 2.2116-1.1058 3.077-2.4039 3.4135zM2.4038 5.4808h4.1347c1.5384 0 1.875-.577 1.875-1.827 0-1.2019-.3366-1.7788-1.875-1.7788H2.4038v3.6058z"/><path id="path4_fill" d="M8.798 10.7692l-.048 1.0577H0V0h8.4135l.048 1.1058H1.202v4.0865h6.25v.9615h-6.25v4.6154h7.5962z"/><path id="path5_stroke" d="M8.75 11.8269v.125h.1195l.0054-.1193-.1249-.0057zm-8.75 0h-.125v.125H0v-.125zM0 0v-.125h-.125V0H0zm8.4135 0l.1248-.0054-.0052-.1196h-.1196V0zm.048 1.1058v.125h.1306l-.0057-.1305-.1249.0055zm-7.2596 0v-.125h-.125v.125h.125zm0 4.0865h-.125v.125h.125v-.125zm6.25 0h.125v-.125h-.125v.125zm0 .9615v.125h.125v-.125h-.125zm-6.25 0v-.125h-.125v.125h.125zm0 4.6154h-.125v.125h.125v-.125zm7.4713-.0056l-.048 1.0576.2497.0114.048-1.0577-.2497-.0113zm.0768.9383H0v.25h8.75v-.25zm-8.625.125V0h-.25v11.8269h.25zM0 .125h8.4135v-.25H0v.25zM8.2886.0054l.048 1.1058.2498-.0109-.048-1.1057-.2498.0108zm.173.9754H1.2018v.25h7.2596v-.25zm-7.3847.125v4.0865h.25V1.1058h-.25zm.125 4.2115h6.25v-.25h-6.25v.25zm6.125-.125v.9615h.25v-.9615h-.25zm.125.8365h-6.25v.25h6.25v-.25zm-6.375.125v4.6154h.25V6.1539h-.25zm.125 4.7404h7.5962v-.25H1.2019v.25z"/><path id="path6_fill" fill-rule="evenodd" d="M2.6442 8.75h6.9712l1.3461 3.0769h1.3462L6.875 0H5.4808L0 11.8269h1.298L2.6443 8.75zm.4327-1.0096L5.625 2.0193l.4808-1.202h.048l.4808 1.202 2.5 5.721H3.077z"/><path id="path7_stroke" d="M9.6154 8.75l.1145-.0501-.0328-.0749h-.0817v.125zm-6.9712 0v-.125h-.0817l-.0328.0749.1145.0501zm8.3173 3.0769l-.1145.0501.0328.0749h.0817v-.125zm1.3462 0v.125h.195l-.0814-.1771-.1136.0521zM6.875 0l.1136-.0522L6.955-.125H6.875V0zM5.4808 0v-.125h-.0799l-.0335.0724L5.4808 0zM0 11.8269l-.1134-.0525-.0823.1775H0v-.125zm1.298 0v.125h.0818l.0328-.0749-.1145-.0501zm4.327-9.8076l.1143.0509.0018-.0045-.1161-.0464zm-2.548 5.721l-.1142-.0508-.0784.1759h.1925v-.125zM6.1057.8174v-.125H6.021L5.9897.771l.116.0464zm.048 0L6.27.771 6.2385.6923h-.0846v.125zm.4808 1.202l-.1161.0464.0016.0036.1145-.05zm2.5 5.721v.125h.191l-.0764-.175-.1146.05zm.4808.8847H2.6442v.25h6.9712v-.25zm1.4607 3.1518L9.7299 8.6999l-.229.1002 1.3461 3.0769.2291-.1002zm1.2316-.0749h-1.3462v.25h1.3462v-.25zM6.7614.0522l5.4327 11.8269.2272-.1043L6.9886-.0522l-.2272.1044zM5.4808.125H6.875v-.25H5.4808v.25zM.1134 11.8795L5.5942.0525l-.2268-.105-5.4808 11.8269.2268.1051zm1.1847-.1776H0v.25h1.298v-.25zm1.2316-3.002l-1.3461 3.0769.229.1002 1.3461-3.0769-.229-.1002zm2.9811-6.7315l-2.548 5.7211.2283.1017 2.548-5.721-.2283-.1018zm.479-1.1975l-.4809 1.202.2322.0928.4807-1.202-.232-.0928zm.164-.0786h-.048v.25h.048v-.25zm.5969 1.2805L6.2699.771l-.232.0928.4807 1.202.232-.0929zm2.4985 5.7175l-2.5-5.7211-.2291.1001 2.5 5.7211.229-.1zm-6.1723.175h6.0577v-.25H3.077v.25z"/><path id="path8_fill" d="M5.625 1.1058v10.7211H4.423V1.1058H0L.048 0h10.0482v1.1058H5.625z"/><path id="path9_stroke" d="M5.625 11.8269v.125h.125v-.125h-.125zm-1.202 0h-.125v.125h.125v-.125zm0-10.7211h.125v-.125h-.125v.125zm-4.423 0l-.1249-.0055-.0057.1305H0v-.125zM.048 0v-.125h-.1196l-.0052.1196L.048 0zm10.0482 0h.125v-.125h-.125V0zm0 1.1058v.125h.125v-.125h-.125zm-4.5962 0v10.7211h.25V1.1058H5.5zm.125 10.5961H4.423v.25h1.202v-.25zm-1.077.125V1.1058h-.25v10.7211h.25zM4.423.9808H0v.25h4.423v-.25zM.125 1.1112L.1729.0054l-.2497-.0108-.048 1.1057.2497.0109zM.048.125h10.0481v-.25H.0481v.25zM9.971 0v1.1058h.2501V0h-.25zm.1251.9808H5.625v.25h4.4712v-.25z"/><path id="path10_fill" d="M3.9904 12.3077c-1.6346 0-2.9327-.3846-3.9904-1.0096l.1923-1.0577c1.1058.625 2.3558 1.0096 3.8462 1.0096 2.2115 0 3.3654-1.0096 3.3654-2.452 0-3.125-7.2116-1.4903-7.2116-5.5288C.1923 1.5385 1.4903 0 4.5193 0 5.9134 0 7.1634.2404 8.173.7212l-.1923 1.0096c-1.1058-.4327-2.1635-.6731-3.4135-.6731-2.3558 0-3.2212 1.0577-3.2212 2.1154 0 2.9808 7.2116 1.298 7.2116 5.5288-.048 2.1154-1.5866 3.6058-4.5673 3.6058z"/><path id="path11_stroke" d="M0 11.2981l-.123-.0224-.0156.0857.075.0443L0 11.2981zm.1923-1.0577l.0615-.1088-.153-.0865-.0315.1729.123.0224zM8.1731.7212l.1228.0233.018-.0947-.087-.0415-.0538.1129zm-.1923 1.0096l-.0456.1164.1402.0548.0282-.1478-.1228-.0234zm.5769 6.9711l.125.0029v-.0029h-.125zm-4.5673 3.4808c-1.6167.0013-2.8828-.3742-3.9268-.9922l-.1272.2152c1.0714.632 2.4014 1.0257 4.054 1.027v-.25zM.123 11.3204l.1923-1.0577-.246-.0447-.1923 1.0577.246.0447zm.0078-.9712c1.1179.631 2.3987 1.0244 3.9077 1.0258v-.25c-1.4718.0014-2.691-.3744-3.7847-.9934l-.123.2176zm3.9077 1.0258c1.123 0 1.9943-.2561 2.588-.7109.5974-.4576.9024-1.108.9024-1.866h-.25c0 .6843-.272 1.2598-.8044 1.6676-.5362.4106-1.3475.6593-2.436.6593v.25zm3.4904-2.577c0-.8454-.4951-1.364-1.1945-1.7253-.69-.3555-1.6041-.5743-2.5037-.8172-.9035-.244-1.7848-.5114-2.441-.9612C.7428 4.8507.3174 4.232.3174 3.2693h-.25c0 1.0564.476 1.7478 1.1811 2.2312.6961.4772 1.6177.7535 2.517.9964.9033.2438 1.792.4547 2.4543.7979.6528.3373 1.0592.7863 1.0592 1.5033h.25zM.3173 3.2693c0-.8327.3113-1.6138.9839-2.1886C1.9753.5044 3.025.125 4.5192.125v-.25C2.9846-.125 1.871.2648 1.1387.8906.405 1.5176.0673 2.3712.0673 3.2692h.25zM4.5193.125c1.3823-.0006 2.6052.2341 3.6.709l.1075-.2257C7.2024.1216 5.9253-.1244 4.5192-.125v.25zm3.531.5728L7.858 1.7074l.2456.0468.1923-1.0097-.2456-.0467zm-.024.9166c-1.1146-.4358-2.195-.681-3.459-.6817v.25c1.236-.0008 2.271.2349 3.368.6645l.091-.2328zM4.5673.9327c-1.1948 0-2.0307.268-2.5706.6873-.543.4216-.7755.9877-.7755 1.553h.25c0-.4923.2-.9838.6788-1.3555.4816-.374 1.2564-.6348 2.4173-.6348v-.25zM1.2211 3.173c.002.395.129.734.3372.9977.2095.261.5136.4729.8602.6412.6894.333 1.6022.5378 2.5012.7775.9024.2407 1.783.5155 2.4385.9845.6465.4626 1.0745 1.1144 1.0745 2.128h.25c0-1.102-.4734-1.8264-1.179-2.3313-.6968-.4986-1.619-.7826-2.5196-1.0227-.9039-.241-1.794-.439-2.4566-.761-.3295-.1592-.5889-.3378-.7737-.572-.1863-.2313-.2847-.4917-.2827-.842h-.25zm7.2116 5.526c-.0233 1.0262-.4068 1.8919-1.139 2.503-.7344.6129-1.8326.9806-3.3033.9806v.25c1.51 0 2.6714-.3775 3.4635-1.0387.7943-.6629 1.204-1.6001 1.2288-2.6892l-.25-.0057z"/></defs></svg>
